docs/.gitbook/assets/icon-hard-drive-16@light.svg

<svg width="32" height="32" viewBox="0 0 16 16" fill="none" xmlns="http://www.w3.org/2000/svg">
<rect x="0" y="0" width="16" height="16" fill="#fff"/>
<path fill-rule="evenodd" clip-rule="evenodd" d="M4.63961 2.5C4.04376 2.5 3.53074 2.92057 3.41388 3.50485L2.52427 7.95289C2.50813 8.03361 2.5 8.11572 2.5 8.19804V8.29985C2.87503 8.10814 3.29989 8 3.75 8H12.25C12.7001 8 13.125 8.10814 13.5 8.29985V8.19804C13.5 8.11572 13.4919 8.03361 13.4757 7.95289L12.5861 3.50485C12.4693 2.92057 11.9562 2.5 11.3604 2.5H4.63961ZM13.5 10.75C13.5 10.0596 12.9404 9.5 12.25 9.5H3.75C3.05964 9.5 2.5 10.0596 2.5 10.75V11.25V12.25C2.5 12.9404 3.05964 13.5 3.75 13.5H12.25C12.9404 13.5 13.5 12.9404 13.5 12.25V11.25V10.75ZM15 11.25V12.25C15 13.7688 13.7688 15 12.25 15H3.75C2.23122 15 1 13.7688 1 12.25V11.25V10.75V8.19804C1 8.01695 1.01789 7.8363 1.0534 7.65872L1.94301 3.21068C2.20009 1.92526 3.32874 1 4.63961 1H11.3604C12.6713 1 13.7999 1.92526 14.057 3.21068L14.9466 7.65872C14.9821 7.8363 15 8.01695 15 8.19804V10.75V11.25ZM4 11.25C4 10.8358 4.33579 10.5 4.75 10.5H5.25C5.66421 10.5 6 10.8358 6 11.25C6 11.6642 5.66421 12 5.25 12H4.75C4.33579 12 4 11.6642 4 11.25Z" fill="#000"/>
</svg>

<svg xmlns="http://www.w3.org/2000/svg" width="32" height="32" fill="none" viewBox="0 0 16 16"><path fill="#fff" d="M0 0h16v16H0z"/><path fill="#000" fill-rule="evenodd" d="M4.64 2.5a1.25 1.25 0 0 0-1.226 1.005l-.89 4.448a1.3 1.3 0 0 0-.024.245V8.3c.375-.192.8-.3 1.25-.3h8.5c.45 0 .875.108 1.25.3v-.102q0-.123-.024-.245l-.89-4.448A1.25 1.25 0 0 0 11.36 2.5zm8.86 8.25c0-.69-.56-1.25-1.25-1.25h-8.5c-.69 0-1.25.56-1.25 1.25v1.5c0 .69.56 1.25 1.25 1.25h8.5c.69 0 1.25-.56 1.25-1.25zm1.5.5v1A2.75 2.75 0 0 1 12.25 15h-8.5A2.75 2.75 0 0 1 1 12.25V8.198q0-.272.053-.54l.89-4.447A2.75 2.75 0 0 1 4.64 1h6.72a2.75 2.75 0 0 1 2.697 2.21l.89 4.449q.053.266.053.539zm-11 0a.75.75 0 0 1 .75-.75h.5a.75.75 0 0 1 0 1.5h-.5a.75.75 0 0 1-.75-.75" clip-rule="evenodd"/></svg>
